dist/assets/img/corporulian-code/welcome/backdrop_1200.svg

<svg width="846" height="606" viewBox="0 0 846 606" fill="none" xmlns="http://www.w3.org/2000/svg"><g filter="url(#filter0_di_1419_47865)"><path fill-rule="evenodd" clip-rule="evenodd" d="M732.98 114.726c-68.179-98.84-294.151-88.99-412.733-83.614-116.604 5.286-209.411 34.303-259.365 136.115C-11.693 315.145 104.816 574 411.78 574c194.436 0 319.501-129.388 351.239-263.376 3.112-13.137 15.849-22.333 28.1-16.661 6.028 2.791 10.776 5.65 13.999 7.591a.162.162 0 00.245-.152c-.932-11.809-10.93-21.014-22.269-27.49-7.483-4.275-12.548-12.111-12.253-20.724 1.72-50.326-10.465-98.746-37.861-138.462z" fill="#fff"/></g><defs><filter id="filter0_di_1419_47865" x="0" y="0" width="845.364" height="626" filterUnits="userSpaceOnUse" color-interpolation-filters="sRGB"><feFlood flood-opacity="0" result="BackgroundImageFix"/><feColorMatrix in="SourceAlpha" values="0 0 0 0 0 0 0 0 0 0 0 0 0 0 0 0 0 0 127 0" result="hardAlpha"/><feOffset dy="12"/><feGaussianBlur stdDeviation="20"/><feComposite in2="hardAlpha" operator="out"/><feColorMatrix values="0 0 0 0 0.909804 0 0 0 0 0.313726 0 0 0 0 0.470588 0 0 0 1 0"/><feBlend in2="BackgroundImageFix" result="effect1_dropShadow_1419_47865"/><feBlend in="SourceGraphic" in2="effect1_dropShadow_1419_47865" result="shape"/><feColorMatrix in="SourceAlpha" values="0 0 0 0 0 0 0 0 0 0 0 0 0 0 0 0 0 0 127 0" result="hardAlpha"/><feOffset dy="-4"/><feGaussianBlur stdDeviation="4"/><feComposite in2="hardAlpha" operator="arithmetic" k2="-1" k3="1"/><feColorMatrix values="0 0 0 0 0.909804 0 0 0 0 0.313726 0 0 0 0 0.470588 0 0 0 0.48 0"/><feBlend in2="shape" result="effect2_innerShadow_1419_47865"/></filter></defs></svg>

<svg width="846" height="606" viewBox="0 0 846 606" fill="none" xmlns="http://www.w3.org/2000/svg">
<g filter="url(#filter0_di_1419_47865)">
<path fill-rule="evenodd" clip-rule="evenodd" d="M732.98 114.726C664.801 15.886 438.829 25.7358 320.247 31.1116C203.643 36.3977 110.836 65.4153 60.8824 167.227C-11.6926 315.145 104.816 574 411.78 574C606.216 574 731.281 444.612 763.019 310.624C766.131 297.487 778.868 288.291 791.119 293.963C797.147 296.754 801.895 299.613 805.118 301.554C805.231 301.622 805.374 301.533 805.363 301.402C804.431 289.593 794.433 280.388 783.094 273.912C775.611 269.637 770.546 261.801 770.841 253.188C772.561 202.862 760.376 154.442 732.98 114.726Z" fill="white"/>
</g>
<defs>
<filter id="filter0_di_1419_47865" x="0" y="0" width="845.364" height="626" filterUnits="userSpaceOnUse" color-interpolation-filters="sRGB">
<feFlood flood-opacity="0" result="BackgroundImageFix"/>
<feColorMatrix in="SourceAlpha" type="matrix" values="0 0 0 0 0 0 0 0 0 0 0 0 0 0 0 0 0 0 127 0" result="hardAlpha"/>
<feOffset dy="12"/>
<feGaussianBlur stdDeviation="20"/>
<feComposite in2="hardAlpha" operator="out"/>
<feColorMatrix type="matrix" values="0 0 0 0 0.909804 0 0 0 0 0.313726 0 0 0 0 0.470588 0 0 0 1 0"/>
<feBlend mode="normal" in2="BackgroundImageFix" result="effect1_dropShadow_1419_47865"/>
<feBlend mode="normal" in="SourceGraphic" in2="effect1_dropShadow_1419_47865" result="shape"/>
<feColorMatrix in="SourceAlpha" type="matrix" values="0 0 0 0 0 0 0 0 0 0 0 0 0 0 0 0 0 0 127 0" result="hardAlpha"/>
<feOffset dy="-4"/>
<feGaussianBlur stdDeviation="4"/>
<feComposite in2="hardAlpha" operator="arithmetic" k2="-1" k3="1"/>
<feColorMatrix type="matrix" values="0 0 0 0 0.909804 0 0 0 0 0.313726 0 0 0 0 0.470588 0 0 0 0.48 0"/>
<feBlend mode="normal" in2="shape" result="effect2_innerShadow_1419_47865"/>
</filter>
</defs>
</svg>
